src/pos-icons/unfold-less-vertical.svg

<svg height="24" viewBox="0 0 24 24" width="24" xmlns="http://www.w3.org/2000/svg"><path d="m5.41 7.41 4.59 4.59-4.59 4.59-1.41-1.42 3.17-3.17-3.17-3.17zm13.18 9.18-4.59-4.59 4.59-4.58 1.41 1.41-3.17 3.17 3.17 3.17z"/></svg>

<?xml version="1.0" encoding="UTF-8"?><!DOCTYPE svg PUBLIC "-//W3C//DTD SVG 1.1//EN" "http://www.w3.org/Graphics/SVG/1.1/DTD/svg11.dtd"><svg xmlns="http://www.w3.org/2000/svg" xmlns:xlink="http://www.w3.org/1999/xlink" version="1.1" id="mdi-unfold-less-vertical" width="24" height="24" viewBox="0 0 24 24"><path d="M5.41,7.41L10,12L5.41,16.59L4,15.17L7.17,12L4,8.83L5.41,7.41M18.59,16.59L14,12L18.59,7.42L20,8.83L16.83,12L20,15.17L18.59,16.59Z" /></svg>
